figma/plus.svg

<svg xmlns="http://www.w3.org/2000/svg" width="24" height="24" fill="none" viewBox="0 0 24 24">
  <path fill="#000" d="M19 13h-6v6h-2v-6H5v-2h6V5h2v6h6v2Z"/>
</svg>

<svg width="24" height="24" viewBox="0 0 24 24">
  <path d="M19 13H13V19H11V13H5V11H11V5H13V11H19V13Z"/>
</svg>
